X: 7014
T: Chief O'Neill's Favourite
R: hornpipe
M: 4/4
K: Dmajor
|:fg|af(3gfe fdec|dedB ABAG|FDFG ABAB|=cd=cB A2 fg|
af(3gfe fdec|dedB ABAG|FDFD GBAG|F2 D2 D2:|
DE=F2 =FGA2|AB=cB =cd=cB|AG A2 (3ddd d2|=cB=cB AGA2|
fgaf(3gfe fd|ecde dBAB|AGFD FDGB|AGF2 D2 D2:|

